icons/svgs/camera-circle-solid.svg

<svg width="24" height="24" viewBox="0 0 24 24" fill="none" xmlns="http://www.w3.org/2000/svg">
<path d="M12 22C8.40625 22 5.125 20.125 3.32812 17C1.53125 13.9141 1.53125 10.125 3.32812 7C5.125 3.91406 8.40625 2 12 2C15.5547 2 18.8359 3.91406 20.6328 7C22.4297 10.125 22.4297 13.9141 20.6328 17C18.8359 20.125 15.5547 22 12 22ZM9.65625 8.25H8.25C7.54688 8.25 7 8.83594 7 9.5V14.5C7 15.2031 7.54688 15.75 8.25 15.75H15.75C16.4141 15.75 17 15.2031 17 14.5V9.5C17 8.83594 16.4141 8.25 15.75 8.25H14.3438L14.0703 7.625C13.9531 7.27344 13.6016 7 13.2109 7H10.75C10.3594 7 10.0078 7.27344 9.89062 7.625L9.65625 8.25ZM13.875 12C13.875 12.7031 13.4844 13.2891 12.9375 13.6406C12.3516 13.9922 11.6094 13.9922 11.0625 13.6406C10.4766 13.2891 10.125 12.7031 10.125 12C10.125 11.3359 10.4766 10.75 11.0625 10.3984C11.6094 10.0469 12.3516 10.0469 12.9375 10.3984C13.4844 10.75 13.875 11.3359 13.875 12Z" fill="black"/>
</svg>

<svg xmlns="http://www.w3.org/2000/svg" width="24" height="24" fill="currentColor" class="icon-camera-circle-solid" viewBox="0 0 24 24">
  <mask id="a" width="21" height="20" x="1" y="2" maskUnits="userSpaceOnUse" style="mask-type:alpha">
    <path d="M12 22c-3.594 0-6.875-1.875-8.672-5-1.797-3.086-1.797-6.875 0-10C5.125 3.914 8.406 2 12 2c3.555 0 6.836 1.914 8.633 5 1.797 3.125 1.797 6.914 0 10A9.93 9.93 0 0 1 12 22M9.656 8.25H8.25C7.547 8.25 7 8.836 7 9.5v5c0 .703.547 1.25 1.25 1.25h7.5c.664 0 1.25-.547 1.25-1.25v-5c0-.664-.586-1.25-1.25-1.25h-1.406l-.274-.625A.93.93 0 0 0 13.21 7h-2.46a.93.93 0 0 0-.86.625zM13.875 12c0 .703-.39 1.29-.937 1.64-.586.352-1.329.352-1.876 0a1.87 1.87 0 0 1-.937-1.64c0-.664.352-1.25.938-1.602.546-.351 1.289-.351 1.874 0 .547.352.938.938.938 1.602"/>
  </mask>
  <g mask="url(#a)">
    <path d="M0 0h24v24H0z"/>
  </g>
</svg>
